X:1431
T:Viel Freuden mit sich bringet
C:anon.
O:Germany
B:German tabulatorbook, 1598
R:Courante
Z:Transcribed by Frank Nordberg - http://www.musicaviva.com
F:http://abc.musicaviva.com/tunes/germany/viel-freuden-mit-sich.abc
M:3/4
L:1/4
K:G
d|d>cB|c>BA|B2G|B>AG|
w:Viel Freu--den mit_ sich brin--get_ die
w:im gr\"u--nen Wald_ jetzt sin--get_ wied-
A2G|F>EF|G3-|G z:|A/B/|
w:fr\"oh-lich Som--mer-zeit,_ ohn_
w:rum vor Freu--dig-keit_
c2c|c2d|e2d|e>fg|
w:Un-ter-la\ss mit hel-lem Schall_ aus
f>ed|^c>Bc|d3-|d z d|
w:ih--rem H\"als--lein zart_ sehr
d>cB|c>BA|B2G|B>AG|
w:sch\"on_ und fein_ Frau Nach-ti-gall,_ kein
A2G|F>EF|G3-|G z|]
w:M\"uh noch Flei\ss_ sie spart._
W:
W:Viel Freuden mit sich bringet
W:die fr\"ohlich Sommerzeit,
W:im gr\"unen Wald jetzt singet
W:wiedrum vor Freudigkeit
W:ohn Unterla\ss mit hellem Schall
W:aus ihrem H\"alslein zart
W:sehr sch\"on und fein Frau Nachtigall,
W:kein M\"uh noch Flei\ss sie spart.
W:
W:
W:  From Musica Viva - http://www.musicaviva.com
W:  the Internet center for free sheet music downloads.


